svgs/sharp-solid/toilet-portable.svg

<svg xmlns="http://www.w3.org/2000/svg" viewBox="0 0 320 512"><!--! Font Awesome Pro 6.6.0 by @fontawesome - https://fontawesome.com License - https://fontawesome.com/license (Commercial License) Copyright 2024 Fonticons, Inc. --><path d="M0 0L0 64l320 0 0-64L0 0zM24 96L0 96l0 24L0 488l0 24 48 0 0-24 0-8 224 0 0 8 0 24 48 0 0-24 0-368 0-24-24 0L24 96zM256 240l0 64 0 16-32 0 0-16 0-64 0-16 32 0 0 16z"/></svg>

<svg xmlns="http://www.w3.org/2000/svg" viewBox="0 0 320 512"><!--! Font Awesome Pro 6.5.2 by @fontawesome - https://fontawesome.com License - https://fontawesome.com/license (Commercial License) Copyright 2024 Fonticons, Inc. --><path d="M0 0V64H320V0H0zM24 96H0v24V488v24H48V488v-8H272v8 24h48V488 120 96H296 24zM256 240v64 16H224V304 240 224h32v16z"/></svg>
